X:1
T:Title
%%score { ( 1 3 ) | ( 2 4 ) }
L:1/8
M:3/4
K:A
V:1 treble nm="Grand Piano"
V:3 treble 
V:2 bass 
V:4 bass 
V:1
 z2 z2[Q:1/4=100] [CE]>[CE] | [CE]3 [CE] [DF]>[CE] | [CA]4 [CE]>[CA] | c3 c [EA]>[EA] | %4
[M:2/4] [EB]4 |[M:1/4] [Ac]>[GB] |[M:3/4] A3 B A>[^EG] | F4 z2 | [^DB]3 [DA] [DG]>[DF] | %9
[M:2/4] E4 |[M:1/4] [CE]>[CE] |[M:3/4] [CE]3 [CE] [DF]>[CE] | [CA]4 [CE]>[CA] | c3 c [EA]>[EA] | %14
[M:2/4] B4 |[M:1/4] E>A |[M:3/4] c3 e e>c |[M:7/8] [FB]2 [DF]3 [FA]>F[Q:1/4=99][Q:1/4=97] | %18
[M:27/32] z/4 z/4 z/4 z/4 z/4 z/4 z/4 z/4 z/4 z/4 z/4 z/4 z/4 z/4 z/ c/4-c/4-c/4-c/4-c/4-c/4-c/-<[Q:1/4=81]c/ z/4[Q:1/4=96][Q:1/4=94][Q:1/4=93][Q:1/4=91][Q:1/4=90][Q:1/4=88][Q:1/4=87][Q:1/4=85][Q:1/4=84][Q:1/4=82][Q:1/4=79] | %19
[M:2/4] [CA]4[Q:1/4=78][Q:1/4=76] |] %20
V:2
 z2 z2 [A,,A,]>[A,,A,] | [A,,A,]3 [A,,A,] [A,,A,]>[A,,A,] | [A,,A,]4 [A,,A,]>[A,,A,] | %3
 [A,E]3 [A,E] [C,A,]>[C,A,] |[M:2/4] [E,G,]4 |[M:1/4] [E,E]>[E,D] | %6
[M:3/4] [F,CF]3 [F,CF] [F,CF]>[C,B,] | [D,A,]4 [D,A,D]>[D,A,D] | [B,,B,]3 [B,,B,] [B,,B,]>[B,,A,] | %9
[M:2/4] [E,G,]4 |[M:1/4] [A,,A,]>[A,,A,] |[M:3/4] [A,,A,]3 [A,,A,] [A,,A,]>[A,,A,] | %12
 [A,,A,]4 [A,,A,]>[A,,A,] | [A,E]3 [A,E] [C,A,]>[C,A,] |[M:2/4] [E,G,E]4 |[M:1/4] [A,C]>[A,C] | %16
[M:3/4] [A,E]3 [A,CE] [A,CE]>[A,E] |[M:7/8] [D,A,]-[D,A,]- [D,A,]3 [D,D]>[D,A,D] | %18
[M:27/32] z/4 z/4 z/4 z/4 z/4 z/4 z/4 z/4 z/4 z/4 z/4 z/4 z/4 z/4 z/ E/4-E/4-E/4-E/4-E/4-E/4-E/-<E/ z/4 | %19
[M:2/4] [A,,A,]4 |] %20
V:3
 x6 | x6 | x6 | x6 |[M:2/4] x4 |[M:1/4] x2 |[M:3/4] x6 | z2 D2 F>F | x6 |[M:2/4] z2 D2 | %10
[M:1/4] x2 |[M:3/4] x6 | x6 | x6 |[M:2/4] x4 |[M:1/4] x2 |[M:3/4] x6 |[M:7/8] x7 | %18
[M:27/32] E/4-E/4-E/4-E/4-E/4-E/4-E/4-E/4-E/-<E/c/-<c/ z/4 z/4 z/4 z/4 z/4 z/4 z/ B3/4 | %19
[M:2/4] x4 |] %20
V:4
 x6 | x6 | x6 | x6 |[M:2/4] x4 |[M:1/4] x2 |[M:3/4] x6 | x6 | x6 |[M:2/4] x4 |[M:1/4] x2 | %11
[M:3/4] x6 | x6 | x6 |[M:2/4] x4 |[M:1/4] x2 |[M:3/4] x6 |[M:7/8] x7 | %18
[M:27/32] [E,A,C]/4-[E,A,C]/4-[E,A,C]/4-[E,A,C]/4-[E,A,C]/4-[E,A,C]/4-[E,A,C]/4-[E,A,C]/4-[E,A,C]/-<[E,A,C]/[E,A,E]/-<[E,A,E]/[E,G,]/4-[E,G,]/4-[E,G,]/4-[E,G,]/4-[E,G,]/-<[E,G,]/[E,G,D]3/4 | %19
[M:2/4] x4 |] %20

